images/icons/yaco.svg

<svg id="yaco" width="104" height="56" viewBox="0 0 104 56" fill="none" xmlns="http://www.w3.org/2000/svg">
<path fill-rule="evenodd" clip-rule="evenodd" d="M38 7L45.0078 13.6764L32 13.6687V46.0609H66V33.6758L73 40.3448V7H38ZM65.6924 32.8922L45.8226 13.962H65.6924V32.8922ZM59.5231 41.3227H37.3801V19.5373H38.9453V39.8475H59.5231V41.3227ZM41.7959 52.0611L40.9707 50.3643H40.2896L41.4858 52.6104V53.919H42.1035V52.6104L43.2998 50.3643H42.6211L41.7959 52.0611ZM44.8379 50.3643H44.9844L46.3271 53.919H45.6826L45.395 53.0865H44.0189L43.7319 53.919H43.0898L44.4277 50.3643H44.5718H44.8379ZM44.1864 52.6007H45.2271L44.7062 51.0927L44.1864 52.6007ZM48.4821 52.0117C48.4553 51.9776 48.4295 51.9445 48.4048 51.9122C48.3136 51.7917 48.2428 51.6754 48.1924 51.5631C48.1419 51.4491 48.1167 51.3319 48.1167 51.2115C48.1167 51.026 48.1549 50.8665 48.2314 50.733C48.3079 50.5995 48.4162 50.497 48.5562 50.4254C48.6961 50.3521 48.8597 50.3155 49.0469 50.3155C49.2275 50.3155 49.383 50.3521 49.5132 50.4254C49.645 50.497 49.7459 50.5922 49.8159 50.711C49.8875 50.8298 49.9233 50.96 49.9233 51.1016C49.9233 51.2139 49.903 51.3165 49.8623 51.4093C49.8216 51.502 49.7655 51.5867 49.6938 51.6632C49.6222 51.7397 49.5392 51.8121 49.4448 51.8805L49.1979 52.0602L49.9018 52.8909C49.925 52.8453 49.946 52.7973 49.9648 52.7472C50.0251 52.5909 50.0552 52.4176 50.0552 52.2271H50.563C50.563 52.3997 50.5459 52.5632 50.5117 52.7179C50.4792 52.8725 50.4263 53.0157 50.353 53.1475C50.3233 53.2022 50.2897 53.2545 50.2522 53.3044L50.7729 53.919H50.0918L49.8852 53.676C49.7734 53.7609 49.6518 53.8272 49.5205 53.8751C49.348 53.9369 49.1641 53.9679 48.9688 53.9679C48.7327 53.9679 48.5285 53.9247 48.356 53.8385C48.1834 53.7522 48.05 53.6334 47.9556 53.482C47.8628 53.3306 47.8164 53.1573 47.8164 52.962C47.8164 52.8171 47.8465 52.6902 47.9067 52.5811C47.967 52.4705 48.0492 52.3679 48.1533 52.2735C48.2495 52.1862 48.3591 52.099 48.4821 52.0117ZM48.7738 52.3689L48.7002 52.4224C48.6139 52.4924 48.5496 52.56 48.5073 52.6251C48.4666 52.6886 48.4398 52.7472 48.4268 52.8009C48.4137 52.8546 48.4072 52.9018 48.4072 52.9425C48.4072 53.0466 48.4292 53.141 48.4731 53.2257C48.5187 53.3103 48.5846 53.3778 48.6709 53.4283C48.7588 53.4771 48.8654 53.5015 48.9907 53.5015C49.1258 53.5015 49.2568 53.4714 49.3838 53.4112C49.4474 53.3802 49.5078 53.3429 49.5648 53.2992L48.7738 52.3689ZM48.9143 51.7196L49.1323 51.5728C49.2349 51.5045 49.3081 51.4377 49.3521 51.3726C49.396 51.3059 49.418 51.2229 49.418 51.1236C49.418 51.039 49.3854 50.9609 49.3203 50.8892C49.2552 50.8176 49.1632 50.7818 49.0444 50.7818C48.9614 50.7818 48.8914 50.8013 48.8345 50.8404C48.7775 50.8778 48.7344 50.9283 48.7051 50.9918C48.6774 51.0536 48.6636 51.1228 48.6636 51.1993C48.6636 51.2725 48.6823 51.3482 48.7197 51.4263C48.7572 51.5028 48.8084 51.5834 48.8735 51.668C48.8868 51.685 48.9004 51.7021 48.9143 51.7196ZM55.1333 52.7618H54.5229C54.505 52.9164 54.4676 53.0474 54.4106 53.1549C54.3553 53.2607 54.2731 53.3412 54.1641 53.3966C54.0566 53.4519 53.9159 53.4796 53.7417 53.4796C53.5985 53.4796 53.4756 53.4511 53.373 53.3941C53.2705 53.3372 53.1859 53.2566 53.1191 53.1524C53.054 53.0483 53.0052 52.9237 52.9727 52.7789C52.9417 52.6324 52.9263 52.4696 52.9263 52.2906V51.9903C52.9263 51.8015 52.9434 51.6339 52.9775 51.4874C53.0133 51.3393 53.0662 51.2148 53.1362 51.1138C53.2062 51.0129 53.2933 50.9364 53.3975 50.8844C53.5016 50.8323 53.6237 50.8062 53.7637 50.8062C53.9346 50.8062 54.0729 50.8355 54.1787 50.8941C54.2845 50.9511 54.3643 51.0341 54.418 51.1431C54.4733 51.2522 54.5091 51.3832 54.5254 51.5362H55.1357C55.1113 51.2986 55.0446 51.0878 54.9355 50.9039C54.8281 50.72 54.6768 50.5759 54.4814 50.4718C54.2861 50.3676 54.0469 50.3155 53.7637 50.3155C53.5407 50.3155 53.3397 50.3546 53.1606 50.4327C52.9832 50.5108 52.8311 50.6239 52.7041 50.7721C52.5771 50.9185 52.4795 51.0951 52.4111 51.3018C52.3444 51.5085 52.311 51.7397 52.311 51.9952V52.2906C52.311 52.5461 52.3436 52.7773 52.4087 52.984C52.4754 53.1907 52.5715 53.3673 52.6968 53.5138C52.8221 53.6586 52.9727 53.7709 53.1484 53.8507C53.3242 53.9288 53.522 53.9679 53.7417 53.9679C54.0282 53.9679 54.2715 53.9158 54.4717 53.8116C54.6719 53.7074 54.8273 53.565 54.938 53.3844C55.0487 53.2021 55.1138 52.9945 55.1333 52.7618ZM58.5244 52.2393V52.044C58.5244 51.7755 58.4886 51.5354 58.417 51.3238C58.347 51.1106 58.2469 50.9291 58.1167 50.7794C57.9865 50.628 57.8311 50.5133 57.6504 50.4351C57.4697 50.3554 57.2695 50.3155 57.0498 50.3155C56.8317 50.3155 56.6323 50.3554 56.4517 50.4351C56.2726 50.5133 56.1172 50.628 55.9854 50.7794C55.8551 50.9291 55.7542 51.1106 55.6826 51.3238C55.611 51.5354 55.5752 51.7755 55.5752 52.044V52.2393C55.5752 52.5079 55.611 52.7488 55.6826 52.962C55.7559 53.1752 55.8584 53.3567 55.9902 53.5064C56.1221 53.6562 56.2775 53.7709 56.4565 53.8507C56.6372 53.9288 56.8366 53.9679 57.0547 53.9679C57.2744 53.9679 57.4746 53.9288 57.6553 53.8507C57.8359 53.7709 57.9906 53.6562 58.1191 53.5064C58.2493 53.3567 58.3494 53.1752 58.4194 52.962C58.4894 52.7488 58.5244 52.5079 58.5244 52.2393ZM57.9116 52.0391V52.2393C57.9116 52.4379 57.8921 52.6137 57.853 52.7667C57.8156 52.9197 57.7603 53.0491 57.687 53.1549C57.6138 53.259 57.5243 53.338 57.4185 53.3917C57.3127 53.4438 57.1914 53.4698 57.0547 53.4698C56.9196 53.4698 56.7992 53.4438 56.6934 53.3917C56.5876 53.338 56.4964 53.259 56.4199 53.1549C56.3451 53.0491 56.2881 52.9197 56.249 52.7667C56.21 52.6137 56.1904 52.4379 56.1904 52.2393V52.0391C56.1904 51.8406 56.21 51.6656 56.249 51.5142C56.2881 51.3612 56.3442 51.2335 56.4175 51.1309C56.4923 51.0268 56.5827 50.9486 56.6885 50.8966C56.7943 50.8429 56.9147 50.816 57.0498 50.816C57.1849 50.816 57.3062 50.8429 57.4136 50.8966C57.521 50.9486 57.6113 51.0268 57.6846 51.1309C57.7594 51.2335 57.8156 51.3612 57.853 51.5142C57.8921 51.6656 57.9116 51.8406 57.9116 52.0391Z" fill="#8E8F99"/>
</svg>

<svg xmlns="http://www.w3.org/2000/svg" width="104" height="56" fill="none"><path fill="#8E8F99" fill-rule="evenodd" d="m38 7 7.008 6.676L32 13.67V46.06h34V33.676l7 6.669V7H38Zm27.692 25.892-19.87-18.93h19.87v18.93Zm-6.169 8.43H37.38V19.538h1.565v20.31h20.578v1.476Zm-17.727 10.74-.825-1.698h-.681l1.196 2.246v1.309h.617V52.61l1.197-2.246h-.679l-.825 1.697Zm3.042-1.698h.146l1.343 3.555h-.644l-.288-.832h-1.376l-.287.832h-.642l1.338-3.555H44.838Zm-.652 2.237h1.041l-.52-1.508-.52 1.508Zm4.296-.59a9.549 9.549 0 0 1-.077-.099 1.82 1.82 0 0 1-.213-.349.86.86 0 0 1-.075-.352c0-.185.038-.344.114-.478a.77.77 0 0 1 .325-.308c.14-.073.304-.11.49-.11.181 0 .337.037.467.11a.766.766 0 0 1 .35.984.896.896 0 0 1-.17.254 1.729 1.729 0 0 1-.248.218l-.247.18.704.83a1.407 1.407 0 0 0 .153-.664h.508c0 .173-.017.336-.051.49a1.523 1.523 0 0 1-.26.587l.52.615h-.68l-.207-.243a1.384 1.384 0 0 1-.364.2 1.624 1.624 0 0 1-.552.092c-.236 0-.44-.043-.613-.13a.97.97 0 0 1-.4-.356.975.975 0 0 1-.14-.52c0-.145.03-.272.09-.38.061-.111.143-.214.247-.309.096-.087.206-.174.33-.261Zm.292.358-.074.053a.914.914 0 0 0-.193.203.59.59 0 0 0-.034.6.515.515 0 0 0 .198.203.65.65 0 0 0 .32.074c.135 0 .266-.03.393-.09a1.06 1.06 0 0 0 .18-.113l-.79-.93Zm.14-.65.218-.146a.791.791 0 0 0 .22-.2.444.444 0 0 0 .066-.25.354.354 0 0 0-.374-.342.362.362 0 0 0-.339.21.502.502 0 0 0 .015.435c.037.077.088.157.154.242l.04.052Zm6.22 1.043h-.611a1.108 1.108 0 0 1-.112.393.554.554 0 0 1-.247.242.925.925 0 0 1-.422.083.748.748 0 0 1-.369-.086.707.707 0 0 1-.254-.242 1.192 1.192 0 0 1-.146-.373 2.365 2.365 0 0 1-.047-.488v-.3c0-.19.017-.357.051-.504.036-.148.09-.272.16-.373a.69.69 0 0 1 .26-.23.809.809 0 0 1 .367-.078c.17 0 .309.03.415.088.105.057.185.14.239.25.055.108.091.24.107.392h.61a1.53 1.53 0 0 0-.2-.632 1.128 1.128 0 0 0-.454-.432 1.509 1.509 0 0 0-.717-.157c-.223 0-.424.04-.603.118-.178.078-.33.19-.457.34a1.532 1.532 0 0 0-.293.529c-.067.206-.1.438-.1.693v.296c0 .255.033.486.098.693.066.207.163.383.288.53.125.145.276.257.451.337.176.078.374.117.594.117.286 0 .53-.052.73-.156.2-.105.355-.247.466-.428.11-.182.176-.39.195-.622Zm3.39-.523v-.195c0-.268-.035-.509-.107-.72a1.56 1.56 0 0 0-.3-.545 1.277 1.277 0 0 0-.467-.344c-.18-.08-.38-.12-.6-.12-.218 0-.418.04-.598.12-.18.078-.335.193-.467.344-.13.15-.23.332-.302.545a2.241 2.241 0 0 0-.108.72v.195c0 .269.036.51.108.723a1.6 1.6 0 0 0 .307.544c.132.15.288.265.466.345.181.078.38.117.599.117.22 0 .42-.04.6-.117.18-.08.336-.195.464-.345.13-.15.23-.33.3-.544.07-.213.105-.454.105-.723Zm-.612-.2v.2c0 .199-.02.375-.059.528a1.159 1.159 0 0 1-.166.388.73.73 0 0 1-.268.237.813.813 0 0 1-.364.078.807.807 0 0 1-.362-.078.772.772 0 0 1-.273-.237 1.167 1.167 0 0 1-.171-.388 2.144 2.144 0 0 1-.059-.528v-.2c0-.198.02-.373.059-.525.04-.153.095-.28.168-.383a.728.728 0 0 1 .271-.234.787.787 0 0 1 .362-.081c.135 0 .256.027.364.08.107.053.197.13.27.235.075.102.132.23.169.383.04.152.059.327.059.525Z" clip-rule="evenodd"/></svg>
